X:1
T:Puelle saltanti
T:Andrea Gabrieli
T:Source ; Liber primus Ecclesiasticarum Cantionum---Venetia---Ang.Gardano---1576. Editor : André Vierendeels (08/09/17).
T:Puelle saltanti
T:©
T:©
T:©
T:©
C:Andrea Gabrieli
Z:©
%%score [ 1 2 3 4 ]
L:1/8
Q:1/4=120
M:2/2
K:C
V:1 treble nm="Soprano" snm="S"
V:2 treble-8 nm="Tenor 1" snm="T 1"
V:3 treble-8 nm="Tenor 2" snm="T 2"
V:4 bass nm="Bass" snm="B"
V:1
 E4 A4 | A2 c2 B4 | A4 z2 A2- | A2 A2 G2 E2 | F4 D3 E | FGAF GE A2- | A2 G2 A2 E2- | E2 E2 G4 | %8
w: Pu- el-|le sal- tan-|ti im-|* pe- ra- vit|ma- * *||* * ter, im-|* pe- ra-|
 E4 F3 E | DC D4 C2 | D4 z4 | z8 | z4 z2 E2 | A4 A2 c2 | B4 A2 d2- | d2 d2 c2 A2 | BA/B/cB AG A2- | %17
w: vit ma- *||ter,||pu-|el- le sal-|tan- ti im-|* pe- ra- vit|ma- * * * * * * *|
 A2 G2 A4 | z8 | A4 A2 A2- | AA G2 F4 | E4 z4 | z4 c4 | c2 c3 c B2 | A8 | G2 G4 E2 | A4 G2 c2- | %27
w: * * ter,||ni- hil a-|* li- ud pe-|tas,|ni-|hil a- li- ud|pe-|tas ni- si|ca- put Io-|
 c2 A4 G2 | A8- | A4 z4 | z4 z2 d2- | d2 c2 A2 B2 | c3 B A2 G2 |"^#" AG G4 F2 | G8 | z2 E2 F2 E2 | %36
w: * an- *|nis|_|pro-|* pter ius- iu-|ran- * * *||dum|et con- tri-|
 F2 E2 D4 | E2 G4 F2 | D2 E2 F4 | E2 G4 G2 | DEFG A2 ^G2 | A4 ^G4- | G8 | z8 | z8 | z4 z2 c2 | %46
w: sta- tus est|rex pro- pter|ius- iu- ran-|dum, pro- pter|ius- * * * * iu-|ran- dum|_|||et|
 c2 c2 d2 c2 | B2 A2 AG/F/ G2 | A4 z4 | z2 A2 B2 B2 | c6 B2 | A2 G2 F4 | E8 |] %53
w: pro- pter si- mul|dis- cum- ben- * * *|tes|et pro- pter|si- mul|dis- cum- ben-|tes.|
V:2
 z8 | z8 | A4 d4 | d2 f2 e4 | d4 z2 d2- | d2 d2 c2 A2 | B4 A2 c2- | c2 A2 G2 d2 | dc/B/ c2 d4 | %9
w: ||Pu- el-|le sal- tan-|ti im-|* pe- ra- vit|ma- ter, im-|* pe- ra- vit|ma- * * * ter,|
 z8 | z2 A2 d4 | d2 f2 e4 | d4 z4 | z2 A2 e4 | e2 g2 f4- | f4 e2 e2- | e2 e2 c2 A2 | B4 A2 c2 | %18
w: |pu- el-|le sal- tan-|ti,|pu- el-|le sal- tan-|* ti im-|* pe- ra- vit|ma- ter, ni-|
 c2 c3 c e2 | d4 c2 c2- | c2 B2 d2 A2- | A2 G2 c2 BA | B4 e4- | e4 z4 | z4 z2 f2- | f2 e2 g4 | %26
w: hil a- li- ud|pe- tas ni-|* si ca- put|_ Io- an- * *|* nis,|_|ni-|* si ca-|
 g2 f2 e3 d | cAcd e4 | e4 z4 | z2 A2 _B2 A2 | _B2 A2 G4 | A4 d4 | c2 A4 B2 | c3 B A4 | G4 z2 B2 | %35
w: put Io- an- *||nis|et con- tri-|sta- tus est|rex pro-|pter ius- iu-|ran- * *|dum et|
 e3 d c2 B2 | c2 B2 A4 | B4 z2 d2- | d2 c2 A2 B2 | cdec d3 c | B2 A2 f2 e2- | e2 d2 e4- | %42
w: con- * * tri-|sta- tus est|rex pro-|* pter ius- iu-|ran- * * * * *||* * dum|
 e4 z2 e2 | e2 e2 f2 e2 | d2 c2 cB/A/ B2 | c2 e2 e2 e2 | f6 e2 | d2 c2 B4 | A4 z4 | z2 e2 d2 B2 | %50
w: _ et|pro- pter si- mul|dis- cum- ben- * * *|tes et pro- pter|si- mul|dis- cum- ben-|tes|et pro- pter|
 e6 e2 | f2 e2 d4- | d2 ^cB c4 |] %53
w: si- mul|dis- cum- ben-|* * * tes.|
V:3
 z8 | z8 | z8 | z8 | z8 | z8 | E4 A4 | A2 c2 B4 | A4 z2 A2- | A2 A2 G2 E2 | F4 D3 E | FGAF GE A2- | %12
w: ||||||Pu- el-|le sal- tan-|ti im-|* pe- ra- vit|ma- * *||
 A2 G2 A4- | A4 z4 | z8 | z2 A4 A2 | G2 E2 F4 | E4 z2 A2 | A2 A3 A G2 | F4 E2 e2- | e2 e2 A3 B | %21
w: * * ter,|_||im- pe-|ra- vit ma-|ter, ni-|hil a- li- ud|pe- tas ni-|* si ca- *|
 c2 B2 A2 A2- | A2 G2 A4 | z2 e2 e2 e2- | ee d2 c4 | c2 c4 B2 | d3 c BA G2 | A2 A2 B4 | A4 z2 E2 | %29
w: * put Io- an-|* * nis,|ni- hil a-|* li- ud pe-|tas ni- si|ca- * * * *|put Io- an-|nis et|
 F6 E2 | F2 E2 D4 | E4 z4 | z8 | e4 d4 | B4 c2 d2- | e2 d2 z4 | z4 z2 A2- | A2 G2 E2 F2 | G4 F4 | %39
w: con- tri-|sta- tus est|rex||pro- pter|ius- iu- ran-|* dum|pro-|* pter ius- iu-|ran- dum|
 z2 c4 BA | G2 d2 d2 B2 | A4 B4 | z2 B2 B2 B2 | c6 B2 | A2 G2 GF/E/ F2 | G4 z4 | z8 | z4 z2 e2 | %48
w: pro- * *|* pter ius- iu-|ran- dum|et pro- pter|si- mul|dis- cum- ben- * * *|tes||et|
 c2 c2 d2 c2 |"^#" B2 A2 AG/F/ G2 | A8- | A8- | A8 |] %53
w: pro- pter si- mul|dis- cum- ben- * * *|tes.|_||
V:4
 z8 | z8 | z8 | z8 | z8 | z8 | z8 | z8 | A,,4 D,4 | D,2 F,2 E,4 | D,4 z2 D,2- | D,2 D,2 C,2 A,,2 | %12
w: ||||||||Pu- el-|le sal- tan-|ti im-|* pe- ra- vit|
 B,,4 A,,4 | z2 A,4 A,2 | G,2 E,2 F,E,D,C, | D,4 A,,4 | z8 | z4 F,4 | F,2 F,3 F, C,2 | D,4 A,,4 | %20
w: ma- ter,|im- pe-|ra- vit ma- * * *|* ter,||ni-|hil a- li- ud|pe- tas|
 E,4 D,4 | E,4 F,2 F,2 |"^#" E,4 A,,2 A,2 | A,2 A,3 A, E,2 | F,8 | C,4 E,4 | D,4 E,4 | %27
w: ni- si|ca- put Io-|an- nis, ni-|hil a- li- ud|pe-|tas ni-|si ca-|
 F,2 F,2 E,4 | A,,4 z2 A,,2 | D,6 C,2 | D,2 A,,2 _B,,4 | A,,4 z4 | z2 F,4 E,2 | C,2 C,2 D,4 | %34
w: put Io- an-|nis et|con- tri|sta- tus est|rex|pro- pter|ius- iu- ran-|
 G,,4 z2 G,2 | A,6 G,2 | A,2 E,2 F,4 | E,2 E,4 D,2 | B,,2 C,2 D,4 | C,4 G,4- | G,2 F,2 D,2 E,2 | %41
w: dum et|con- tri-|sta- tus est|rex pro- pter|ius- iu- ran-|dum, pro-|* pter ius- iu-|
 F,4 E,4 |"^#" z2 E,2 E,2 E,2 | A,6 G,2 | F,2 E,2 D,4 | C,8 | z8 | D,4 E,2 E,2 | F,6 E,2 | %49
w: ran- dum|et pro- pter|si- mul|dis- cum- ben-|tes||et pro- pter|si- mul|
 D,2 C,2 B,,4 | A,,4 C,4 | D,4 D,4 | A,,8 |] %53
w: dis- cum- ben-|tes, dis-|cum- ben-|tes.|

